X:549
T:My Love Will Ne'er Forsake Me
M:3/4
L:1/8
B:O'Neill's 549
N:"With feeling" "collected by J. O'Neill"
Z:Transcribed by Dave Wooldridge
K:D
(AB/2c/2) \
| d2 d>e fd | e>c  A3 d | (dFGBAG) | {E}F4 (AF) |
(D>EFGAB) | A2 d2 z d | (c>decAc) | d4 ||
(cd) \
| ec A2 ag | f2 d3 A | d(AGFE)D | A4 AF |
D>(EFGA)B | A2 d2 z d | c>(decA)c | d4  ||


